packages/swarm-icons/src/icons/large/Medium.svg

<?xml version="1.0" encoding="UTF-8"?>
<svg width="28px" height="28px" viewBox="0 0 28 28" version="1.1" xmlns="http://www.w3.org/2000/svg" xmlns:xlink="http://www.w3.org/1999/xlink">
    <!-- Generator: Sketch 61.2 (89653) - https://sketch.com -->
    <title>28dp/Logo Medium</title>
    <desc>Created with Sketch.</desc>
    <g id="28dp/Logo-Medium" stroke="none" stroke-width="1" fill="none" fill-rule="evenodd">
        <path d="M25.5,2.5 L25.5,25.5 L2.5,25.5 L2.5,2.5 L25.5,2.5 Z M10.8307477,7.68974359 L6.35117432,7.68974359 L6.35117432,7.94935558 L7.79387105,9.68731364 C7.93550154,9.81497084 8.00783215,10.0024416 7.98863511,10.1921147 L7.98863511,10.1921147 L7.98863511,17.0213524 C8.03066065,17.2677085 7.95300066,17.5193628 7.77944409,17.6992282 L7.77944409,17.6992282 L6.15641026,19.6679525 L6.15641026,19.9275645 L10.7586128,19.9275645 L10.7586128,19.6679525 L9.13557901,17.6992282 C8.96074953,17.5196605 8.87828071,17.2696645 8.91196102,17.0213524 L8.91196102,17.0213524 L8.91196102,11.1151796 L12.9515119,19.9275645 L13.4203883,19.9275645 L16.890074,11.1151796 L16.890074,18.1391264 C16.890074,18.3266239 16.890074,18.362681 16.7674448,18.4852756 L16.7674448,18.4852756 L15.5195121,19.6967983 L15.5195121,19.9564103 L21.5788384,19.9564103 L21.5788384,19.6967983 L20.3741866,18.5141214 C20.2678449,18.4330615 20.215094,18.299834 20.2371304,18.1679721 L20.2371304,18.1679721 L20.2371304,9.47818177 C20.215094,9.34631991 20.2678449,9.21309229 20.3741866,9.13203244 L20.3741866,9.13203244 L21.6076923,7.94935558 L21.6076923,7.68974359 L17.33731,7.68974359 L14.2932199,15.2833943 L10.8307477,7.68974359 Z" id="Color" fill="#212121" fill-rule="nonzero"></path>
    </g>
</svg>

<svg width="28" height="28" xmlns="http://www.w3.org/2000/svg"><path d="M25.5 2.5v23h-23v-23h23zM10.83 7.69H6.352v.26l1.443 1.737a.598.598 0 01.195.505v6.83a.786.786 0 01-.21.677l-1.623 1.969v.26h4.603v-.26l-1.623-1.969a.815.815 0 01-.224-.678v-5.906l4.04 8.813h.468l3.47-8.813v7.024c0 .188 0 .224-.123.346l-1.247 1.212v.26h6.059v-.26l-1.205-1.183a.36.36 0 01-.137-.346v-8.69a.36.36 0 01.137-.346l1.234-1.183v-.26h-4.27l-3.045 7.594-3.462-7.593z" fill="#212121" fill-rule="nonzero"/></svg>
